X:1
T:Lisbon
M:4/4
L:1/4
K:C
 G| A3/2 F/2 E D| E D2 C| D3/2 E/2 F G| A3| z| A F E D| E D2 C| D E F G|\
 A2| A3/2 B/2| c A B ^c| d A2G/2-F/2| E CD/2-E/2 F| G3| F/2E/2| F GA/2-B/2 ^c|\
 d A2G/2-F/2| E DC/2-D/2 E| D2 z||

